assets/img/braze_icons/cryptocurrency-01.svg

<svg fill="none" height="24" viewBox="0 0 24 24" width="24" xmlns="http://www.w3.org/2000/svg"><g fill="#801ed7"><path d="m8.05476 3.91074c.49639-.24211.70253-.84078.46043-1.33717-.24211-.49639-.84078-.70252-1.33717-.46042-2.08787 1.01832-3.79977 2.67149-4.89034 4.72255s-1.50382 4.3947-1.18052 6.6951c.07686.5469.58253.9279 1.12944.8511.54691-.0769.92795-.5825.85109-1.1295-.26451-1.8821.0736-3.79962.96589-5.47776.89228-1.67814 2.29292-3.03073 4.00118-3.8639z"/><path d="m15.4849 2.57357c.2421-.49639.8408-.70252 1.3372-.46042 2.0879 1.01832 3.7998 2.67149 4.8903 4.72255 1.0906 2.05106 1.5038 4.3947 1.1805 6.6951-.0768.5469-.5825.9279-1.1294.8511-.5469-.0769-.9279-.5825-.8511-1.1295.2645-1.8821-.0736-3.79962-.9659-5.47776s-2.2929-3.03073-4.0012-3.8639c-.4964-.24211-.7025-.84078-.4604-1.33717z"/><path d="m5.31312 19.5026c.32463-.4468.95-.5458 1.39681-.2212 1.53762 1.1171 3.38947 1.7188 5.29007 1.7188s3.7524-.6017 5.2901-1.7188c.4468-.3246 1.0721-.2256 1.3968.2212.3246.4468.2255 1.0722-.2213 1.3968-1.8793 1.3654-4.1426 2.1008-6.4656 2.1008-2.32298 0-4.58632-.7354-6.46564-2.1008-.44681-.3246-.54586-.95-.22124-1.3968z"/><path d="m12 5.5c-3.58985 0-6.5 2.91015-6.5 6.5 0 3.5899 2.91015 6.5 6.5 6.5 3.5899 0 6.5-2.9101 6.5-6.5 0-3.58985-2.9101-6.5-6.5-6.5z"/></g></svg>

<svg width="24" height="24" viewBox="0 0 24 24" fill="none" xmlns="http://www.w3.org/2000/svg">
<path d="M8.05476 3.91074C8.55115 3.66863 8.75729 3.06996 8.51519 2.57357C8.27308 2.07718 7.67441 1.87105 7.17802 2.11315C5.09015 3.13147 3.37825 4.78464 2.28768 6.8357C1.19711 8.88676 0.78386 11.2304 1.10716 13.5308C1.18402 14.0777 1.68969 14.4587 2.2366 14.3819C2.78351 14.305 3.16455 13.7994 3.08769 13.2524C2.82318 11.3703 3.16129 9.45278 4.05358 7.77464C4.94586 6.0965 6.3465 4.74391 8.05476 3.91074Z" fill="#801ED7"/>
<path d="M15.4849 2.57357C15.727 2.07718 16.3257 1.87105 16.8221 2.11315C18.91 3.13147 20.6219 4.78464 21.7124 6.8357C22.803 8.88676 23.2162 11.2304 22.8929 13.5308C22.8161 14.0777 22.3104 14.4587 21.7635 14.3819C21.2166 14.305 20.8356 13.7994 20.9124 13.2524C21.1769 11.3703 20.8388 9.45278 19.9465 7.77464C19.0542 6.0965 17.6536 4.74391 15.9453 3.91074C15.4489 3.66863 15.2428 3.06996 15.4849 2.57357Z" fill="#801ED7"/>
<path d="M5.31312 19.5026C5.63775 19.0558 6.26312 18.9568 6.70993 19.2814C8.24755 20.3985 10.0994 21.0002 12 21.0002C13.9006 21.0002 15.7524 20.3985 17.2901 19.2814C17.7369 18.9568 18.3622 19.0558 18.6869 19.5026C19.0115 19.9494 18.9124 20.5748 18.4656 20.8994C16.5863 22.2648 14.323 23.0002 12 23.0002C9.67702 23.0002 7.41368 22.2648 5.53436 20.8994C5.08755 20.5748 4.9885 19.9494 5.31312 19.5026Z" fill="#801ED7"/>
<path d="M12 5.5C8.41015 5.5 5.5 8.41015 5.5 12C5.5 15.5899 8.41015 18.5 12 18.5C15.5899 18.5 18.5 15.5899 18.5 12C18.5 8.41015 15.5899 5.5 12 5.5Z" fill="#801ED7"/>
</svg>
